X:7821
T:Ur maligorn - An Dro
O:england
R:An Dro
C:D. Shepherd
M:4/4
L:1/8
K:G
B|B2 A2 G3A |B2 c2 A3B|B2 A2 G3A|B2 c2 A3 :|\
|:G|G2 B2 d3e|c2 d2 B3A |G2 B2 d3c|A2 F2 G3 :|


